build/img/weather-app/cloudy.svg

<svg width="128" height="128" viewBox="0 0 128 128" fill="none" xmlns="http://www.w3.org/2000/svg">
<path d="M98.7625 52.9875C98.7625 62.55 91.0125 70.3 81.45 70.3C71.8875 70.3 64.1375 62.55 64.1375 52.9875C64.1375 43.425 71.8875 35.675 81.45 35.675C91 35.675 98.7625 43.425 98.7625 52.9875Z" fill="#FBBA22"/>
<path d="M105.313 73.425C105.313 63.1875 97.15 54.9 87.075 54.9C84.1625 54.9 81.4125 55.6125 78.975 56.85C75.075 51.8625 69.0625 48.6625 62.3125 48.6625C52.8875 48.6625 44.9 54.8875 42.1 63.5125C40.15 62.5375 37.9625 61.9875 35.6375 61.9875C27.5 61.9875 20.8875 68.7 20.8875 76.975C20.8875 85.25 27.4875 91.9625 35.6375 91.9625H87.95V91.9125C97.6125 91.4375 105.313 83.35 105.313 73.425Z" fill="white"/>
<path d="M99.7 36.775C100.25 36.775 100.813 36.5625 101.225 36.1375L105.563 31.8C106.413 30.95 106.413 29.5875 105.563 28.7375C104.713 27.8875 103.35 27.8875 102.5 28.7375L98.1625 33.075C97.3125 33.925 97.3125 35.2875 98.1625 36.1375C98.5875 36.5625 99.15 36.775 99.7 36.775ZM61.55 36.15C61.975 36.575 62.525 36.7875 63.075 36.7875C63.625 36.7875 64.1875 36.575 64.6 36.15C65.45 35.3 65.45 33.9375 64.6 33.0875L60.25 28.7375C59.4 27.8875 58.0375 27.8875 57.1875 28.7375C56.3375 29.5875 56.3375 30.95 57.1875 31.8L61.55 36.15ZM81.4375 29.175C82.6375 29.175 83.6 28.2 83.6 27.0125V20.5125C83.6 19.3125 82.625 18.35 81.4375 18.35C80.2375 18.35 79.275 19.325 79.275 20.5125V27.0125C79.275 28.2 80.25 29.175 81.4375 29.175ZM113.975 50.825H107.425C106.225 50.825 105.262 51.8 105.262 52.9875C105.262 54.1875 106.225 55.15 107.425 55.15H113.975C115.175 55.15 116.137 54.175 116.137 52.9875C116.137 51.8 115.175 50.825 113.975 50.825ZM100.313 57.7C100.7 56.1875 100.925 54.6125 100.925 52.9875C100.925 42.25 92.1875 33.5125 81.4375 33.5125C72.975 33.5125 65.775 38.95 63.1 46.5125C62.8375 46.5 62.575 46.4875 62.3125 46.4875C52.9375 46.4875 44.5875 52.1 40.8625 60.6625C39.175 60.1 37.425 59.8125 35.6375 59.8125C26.3125 59.8125 18.725 67.5 18.725 76.9625C18.725 86.4125 26.3125 94.1125 35.6375 94.1125H87.95C88.1375 94.1125 88.325 94.0875 88.5 94.0375C99.175 93.2875 107.463 84.3125 107.463 73.425C107.475 67.1375 104.688 61.5 100.313 57.7ZM81.4375 37.8375C89.7875 37.8375 96.5875 44.6375 96.5875 52.9875C96.5875 53.6875 96.5375 54.3875 96.4375 55.0625C93.625 53.5875 90.45 52.7375 87.075 52.7375C84.4875 52.7375 81.975 53.225 79.575 54.2C76.325 50.6 72.125 48.15 67.5125 47.0875C69.825 41.6625 75.175 37.8375 81.4375 37.8375ZM87.85 89.75C87.7375 89.75 87.625 89.775 87.5125 89.7875H35.6375C28.7 89.7875 23.0625 84.0375 23.0625 76.9625C23.0625 69.9 28.7 64.15 35.6375 64.15C37.5375 64.15 39.3875 64.5875 41.1375 65.45C41.7 65.725 42.3625 65.75 42.9375 65.5C43.5125 65.2625 43.9625 64.775 44.1625 64.175C46.7625 56.1875 54.0625 50.8125 62.325 50.8125C68.175 50.8125 73.625 53.5 77.2875 58.175C77.925 58.9875 79.05 59.2375 79.9625 58.775C82.2125 57.6375 84.6125 57.0625 87.0875 57.0625C95.95 57.0625 103.163 64.4 103.163 73.425C103.15 82.1625 96.425 89.325 87.85 89.75Z" fill="#211F1E"/>
</svg>

<svg width="128" height="128" fill="none" xmlns="http://www.w3.org/2000/svg"><path d="M98.763 52.987c0 9.563-7.75 17.313-17.313 17.313-9.563 0-17.313-7.75-17.313-17.313 0-9.562 7.75-17.312 17.313-17.312 9.55 0 17.313 7.75 17.313 17.313z" fill="#FBBA22"/><path d="M105.313 73.425c0-10.237-8.163-18.525-18.238-18.525-2.913 0-5.663.712-8.1 1.95-3.9-4.988-9.912-8.188-16.662-8.188-9.425 0-17.413 6.226-20.213 14.85a14.39 14.39 0 00-6.462-1.525c-8.138 0-14.75 6.713-14.75 14.988 0 8.275 6.6 14.988 14.75 14.988H87.95v-.05c9.662-.475 17.363-8.563 17.363-18.488z" fill="#fff"/><path d="M99.7 36.775c.55 0 1.113-.212 1.525-.637l4.338-4.338c.85-.85.85-2.213 0-3.063a2.158 2.158 0 00-3.063 0l-4.338 4.338c-.85.85-.85 2.212 0 3.063.425.425.988.637 1.538.637zm-38.15-.625a2.15 2.15 0 001.525.638 2.13 2.13 0 001.525-.638c.85-.85.85-2.212 0-3.063l-4.35-4.35a2.158 2.158 0 00-3.063 0c-.85.85-.85 2.213 0 3.063l4.363 4.35zm19.888-6.975c1.2 0 2.162-.975 2.162-2.163v-6.5a2.163 2.163 0 00-4.325 0v6.5c0 1.188.975 2.163 2.162 2.163zm32.537 21.65h-6.55a2.164 2.164 0 000 4.325h6.55a2.163 2.163 0 000-4.325zM100.313 57.7a18.98 18.98 0 00.612-4.713c0-10.737-8.737-19.474-19.487-19.474-8.463 0-15.663 5.437-18.338 13-.263-.013-.525-.026-.788-.026-9.374 0-17.724 5.613-21.45 14.175a16.459 16.459 0 00-5.224-.85c-9.325 0-16.913 7.688-16.913 17.15 0 9.45 7.587 17.15 16.913 17.15H87.95c.188 0 .375-.024.55-.075 10.675-.75 18.963-9.725 18.963-20.612a20.736 20.736 0 00-7.15-15.725zM81.437 37.837c8.35 0 15.15 6.8 15.15 15.15 0 .7-.05 1.4-.15 2.075a20.085 20.085 0 00-9.362-2.325c-2.588 0-5.1.488-7.5 1.463-3.25-3.6-7.45-6.05-12.063-7.113 2.313-5.425 7.663-9.25 13.925-9.25zM87.85 89.75c-.112 0-.225.025-.337.037H35.637c-6.937 0-12.575-5.75-12.575-12.825 0-7.062 5.638-12.812 12.576-12.812 1.9 0 3.75.438 5.5 1.3.562.275 1.224.3 1.8.05a2.18 2.18 0 001.224-1.325c2.6-7.987 9.9-13.362 18.163-13.362 5.85 0 11.3 2.687 14.962 7.362a2.165 2.165 0 002.675.6 15.666 15.666 0 017.126-1.712c8.862 0 16.075 7.337 16.075 16.362-.013 8.737-6.738 15.9-15.313 16.325z" fill="#211F1E"/></svg>
